dist/images/pencil.svg

<svg width="18" height="17" viewBox="0 0 18 17" fill="none" xmlns="http://www.w3.org/2000/svg">
<path d="M15.7679 10.7097C15.5478 10.7097 15.3694 10.889 15.3694 11.1102V14.6662C15.3687 15.3296 14.8339 15.8671 14.1739 15.8677H2.99249C2.33248 15.8671 1.79777 15.3296 1.797 14.6662V4.22956C1.79777 3.56639 2.33248 3.02884 2.99249 3.02805H6.53072C6.75082 3.02805 6.92921 2.84877 6.92921 2.62755C6.92921 2.40649 6.75082 2.22705 6.53072 2.22705H2.99249C1.89257 2.2283 1.00125 3.12411 1 4.22956V14.6664C1.00125 15.7718 1.89257 16.6677 2.99249 16.6689H14.1739C15.2739 16.6677 16.1652 15.7718 16.1664 14.6664V11.1102C16.1664 10.889 15.988 10.7097 15.7679 10.7097V10.7097Z" fill="#318CCA" fill-opacity="0.75"/>
<path d="M2.99249 2.07705L2.99232 2.07705C1.80899 2.0784 0.851338 3.04194 0.85 4.22939V4.22956L0.85 14.6664L0.85 14.6666C0.851338 15.854 1.80899 16.8176 2.99232 16.8189H2.99249H14.1739H14.1741C15.3574 16.8176 16.3151 15.854 16.3164 14.6666V14.6664V11.1102C16.3164 10.8069 16.0716 10.5597 15.7679 10.5597C15.4643 10.5597 15.2194 10.8069 15.2194 11.1102V14.6661C15.2187 15.2474 14.7503 15.7172 14.1738 15.7177H2.99263C2.41612 15.7172 1.94773 15.2475 1.947 14.6662V4.22964C1.94773 3.64853 2.41606 3.17879 2.99257 3.17805H6.53072C6.83437 3.17805 7.07921 2.9309 7.07921 2.62755C7.07921 2.3244 6.83441 2.07705 6.53072 2.07705L2.99249 2.07705Z" stroke="#318CCA" stroke-opacity="0.75" stroke-width="0.3"/>
<path d="M16.0078 1.19683C15.3075 0.492983 14.1721 0.492983 13.4717 1.19683L6.36227 8.34204C6.31355 8.39101 6.27837 8.45171 6.26 8.51835L5.32509 11.9106C5.28664 12.0497 5.32571 12.1986 5.4272 12.3007C5.52885 12.4028 5.67704 12.442 5.81543 12.4035L9.19067 11.4638C9.25699 11.4453 9.31738 11.4099 9.36611 11.361L16.4754 4.21562C17.1746 3.5113 17.1746 2.37112 16.4754 1.6668L16.0078 1.19683ZM7.23056 8.60236L13.0491 2.75441L14.9256 4.64037L9.10693 10.4883L7.23056 8.60236ZM6.85573 9.35831L8.35492 10.8652L6.28117 11.4426L6.85573 9.35831ZM15.9119 3.64928L15.4893 4.07403L13.6126 2.18792L14.0354 1.76317C14.4244 1.37221 15.0551 1.37221 15.4441 1.76317L15.9119 2.23313C16.3003 2.62456 16.3003 3.25801 15.9119 3.64928V3.64928Z" fill="#318CCA" fill-opacity="0.75"/>
<path d="M14.1417 1.86897L14.1417 1.86899L13.8242 2.18794L15.4893 3.86137L15.8054 3.54361C16.1357 3.21089 16.1358 2.67192 15.8056 2.33895L14.1417 1.86897ZM14.1417 1.86897C14.4721 1.53694 15.0074 1.53694 15.3378 1.86897L15.3378 1.86899L15.8054 2.33878L14.1417 1.86897ZM9.47244 11.4668L9.36611 11.361L9.47244 11.4668L16.5817 4.32141L16.5819 4.3213C17.3392 3.55849 17.3392 2.32393 16.5819 1.56112L16.5817 1.561L16.1141 1.09103C15.3552 0.328249 14.1244 0.328249 13.3654 1.09103L6.25594 8.23624C6.18894 8.30358 6.14061 8.38702 6.11539 8.4785L6.25549 8.51711L6.11539 8.4785L5.18051 11.8706C5.1805 11.8706 5.1805 11.8707 5.18049 11.8707C5.18049 11.8707 5.18048 11.8707 5.18048 11.8707C5.12774 12.0616 5.18137 12.2661 5.32079 12.4065L5.32095 12.4066C5.4607 12.5469 5.66482 12.6011 5.85562 12.548L5.85566 12.548L9.23091 11.6083C9.32226 11.5828 9.40543 11.5341 9.47244 11.4668ZM14.714 4.64037L9.10693 10.2757L7.44216 8.60237L13.0491 2.96708L14.714 4.64037ZM6.49619 11.2271L6.93166 9.64731L8.06792 10.7894L6.49619 11.2271Z" stroke="#318CCA" stroke-opacity="0.75" stroke-width="0.3"/>
</svg>

<svg width="18" height="17" fill="none" xmlns="http://www.w3.org/2000/svg"><path d="M15.768 10.71a.4.4 0 00-.399.4v3.556a1.2 1.2 0 01-1.195 1.202H2.992a1.2 1.2 0 01-1.195-1.202V4.23a1.2 1.2 0 011.195-1.202h3.539a.4.4 0 00.398-.4.4.4 0 00-.398-.4H2.992A2 2 0 001 4.229v10.436a2 2 0 001.992 2.003h11.182a2 2 0 001.992-2.003V11.11a.4.4 0 00-.398-.4z" fill="#318CCA" fill-opacity=".75"/><path d="M2.992 2.077h0A2.15 2.15 0 00.85 4.229v10.437h0a2.15 2.15 0 002.142 2.153h11.182a2.15 2.15 0 002.142-2.152v0-3.557a.55.55 0 10-1.097 0v3.556a1.05 1.05 0 01-1.045 1.052H2.993a1.05 1.05 0 01-1.046-1.052V4.23c0-.581.47-1.051 1.046-1.052H6.53a.55.55 0 000-1.101H2.992z" stroke="#318CCA" stroke-opacity=".75" stroke-width=".3"/><path d="M16.008 1.197a1.787 1.787 0 00-2.536 0l-7.11 7.145a.4.4 0 00-.102.176l-.935 3.393c-.038.139 0 .288.102.39.102.102.25.141.388.102l3.376-.94a.399.399 0 00.175-.102l7.11-7.145c.699-.705.699-1.845 0-2.55l-.468-.47zM7.23 8.602l5.818-5.848 1.877 1.886-5.82 5.848-1.875-1.886zm-.375.756l1.499 1.507-2.074.578.575-2.085zm9.056-5.709l-.423.425-1.876-1.886.422-.425a.993.993 0 011.41 0l.467.47a1.006 1.006 0 010 1.416z" fill="#318CCA" fill-opacity=".75"/><path d="M14.142 1.869h0l-.318.319L15.49 3.86l.316-.317a.856.856 0 000-1.205l-1.663-.47zm0 0a.843.843 0 011.196 0h0l.467.47-1.663-.47zm-4.67 9.598l-.106-.106.106.106 7.11-7.146h0a1.96 1.96 0 000-2.76h0l-.468-.47a1.937 1.937 0 00-2.749 0l-7.11 7.145a.55.55 0 00-.14.242l.14.04-.14-.04-.934 3.393s0 0 0 0 0 0 0 0c-.053.19 0 .395.14.535h0c.14.14.344.195.535.142h0l3.375-.94a.55.55 0 00.241-.141zm5.242-6.827l-5.607 5.636-1.665-1.674 5.607-5.635 1.665 1.673zm-8.218 6.587l.436-1.58 1.136 1.142-1.572.438z" stroke="#318CCA" stroke-opacity=".75" stroke-width=".3"/></svg>
